Newaita-dark/.DP/16/skype-status-connecting-0.svg

<svg xmlns="http://www.w3.org/2000/svg" xmlns:xlink="http://www.w3.org/1999/xlink" width="16px" height="16px" viewBox="0 0 16 16" version="1.1">
<g id="surface1">
<path style=" stroke:none;fill-rule:nonzero;fill:rgb(93.333334%,93.333334%,93.333334%);fill-opacity:1;" d="M 5.363281 2.101562 C 3.796875 2.101562 2.535156 3.363281 2.535156 4.929688 C 2.535156 5.402344 2.652344 5.847656 2.855469 6.238281 C 2.648438 6.808594 2.535156 7.425781 2.535156 8.070312 C 2.535156 11.03125 4.917969 13.414062 7.878906 13.414062 C 8.109375 13.414062 8.335938 13.398438 8.558594 13.371094 C 9.050781 13.789062 9.691406 14.042969 10.390625 14.042969 C 11.957031 14.042969 13.21875 12.78125 13.21875 11.214844 C 13.21875 10.738281 13.105469 10.292969 12.898438 9.902344 C 13.105469 9.332031 13.21875 8.714844 13.21875 8.070312 C 13.21875 5.109375 10.835938 2.726562 7.878906 2.726562 C 7.644531 2.726562 7.417969 2.742188 7.195312 2.769531 C 6.703125 2.351562 6.0625 2.101562 5.363281 2.101562 Z M 7.855469 5.273438 C 8.558594 5.269531 9.242188 5.550781 9.746094 6.066406 C 10.148438 6.597656 9 7.257812 8.519531 6.773438 C 8.121094 6.542969 7.621094 6.527344 7.195312 6.773438 C 6.769531 7.019531 6.53125 7.464844 6.53125 7.921875 C 6.710938 8.582031 5.5625 9.242188 5.304688 8.628906 C 4.984375 7.492188 5.460938 6.246094 6.53125 5.628906 C 6.949219 5.386719 7.40625 5.273438 7.855469 5.273438 Z M 10.191406 7.253906 C 10.355469 7.253906 10.5 7.324219 10.570312 7.496094 C 10.890625 8.632812 10.414062 9.878906 9.34375 10.5 C 8.273438 11.117188 6.957031 10.90625 6.132812 10.0625 C 5.929688 9.796875 6.117188 9.496094 6.414062 9.324219 C 6.710938 9.15625 7.117188 9.109375 7.359375 9.351562 C 7.753906 9.582031 8.257812 9.597656 8.683594 9.351562 C 9.109375 9.105469 9.34375 8.664062 9.34375 8.207031 C 9.21875 7.730469 9.773438 7.253906 10.191406 7.253906 Z M 10.191406 7.253906 "/>
</g>
</svg>

<svg xmlns="http://www.w3.org/2000/svg" width="16pt" height="16pt" viewBox="0 0 16 16"><path d="M5.363 2.102a2.83 2.83 0 0 0-2.508 4.137 5.36 5.36 0 0 0-.32 1.831 5.331 5.331 0 0 0 6.024 5.301 2.823 2.823 0 0 0 1.832.672 2.822 2.822 0 0 0 2.828-2.828c0-.477-.114-.922-.32-1.313a5.36 5.36 0 0 0 .32-1.832 5.33 5.33 0 0 0-6.024-5.3 2.82 2.82 0 0 0-1.832-.668zm2.492 3.171a2.623 2.623 0 0 1 1.891.793c.402.532-.746 1.192-1.226.707a1.326 1.326 0 0 0-1.988 1.148c.179.661-.97 1.321-1.227.708a2.638 2.638 0 0 1 1.226-3 2.634 2.634 0 0 1 1.324-.356zm2.336 1.98c.164 0 .309.071.38.243A2.645 2.645 0 0 1 9.343 10.5a2.641 2.641 0 0 1-3.211-.438c-.203-.265-.016-.566.281-.738.297-.168.703-.215.945.028.395.23.899.246 1.325 0 .425-.247.66-.688.66-1.145-.125-.477.43-.953.847-.953zm0 0" fill="#bdbdbd"/></svg>
